lib/svgs/regular/face-grin-wide.svg

<svg xmlns="http://www.w3.org/2000/svg" viewBox="0 0 512 512"><!--! Font Awesome Free 6.5.1 by @fontawesome - https://fontawesome.com License - https://fontawesome.com/license/free (Icons: CC BY 4.0, Fonts: SIL OFL 1.1, Code: MIT License) Copyright 2023 Fonticons, Inc. --><path d="M464 256A208 208 0 1 0 48 256a208 208 0 1 0 416 0zM0 256a256 256 0 1 1 512 0A256 256 0 1 1 0 256zm349.5 52.4c18.7-4.4 35.9 12 25.5 28.1C350.4 374.6 306.3 400 255.9 400s-94.5-25.4-119.1-63.5c-10.4-16.1 6.8-32.5 25.5-28.1c28.9 6.8 60.5 10.5 93.6 10.5s64.7-3.7 93.6-10.5zM224 192c0 35.3-14.3 64-32 64s-32-28.7-32-64s14.3-64 32-64s32 28.7 32 64zm96 64c-17.7 0-32-28.7-32-64s14.3-64 32-64s32 28.7 32 64s-14.3 64-32 64z"/></svg>

<svg xmlns="http://www.w3.org/2000/svg" viewBox="0 0 512 512"><!--! Font Awesome Free 6.1.1 by @fontawesome - https://fontawesome.com License - https://fontawesome.com/license/free (Icons: CC BY 4.0, Fonts: SIL OFL 1.1, Code: MIT License) Copyright 2022 Fonticons, Inc. --><path d="M349.5 308.4C368.2 303.1 385.4 320.4 374.1 336.5C350.4 374.6 306.3 399.1 255.9 399.1C205.6 399.1 161.5 374.6 136.9 336.5C126.5 320.4 143.7 303.1 162.3 308.4C191.3 315.1 222.8 318.8 255.9 318.8C289 318.8 320.6 315.1 349.5 308.4zM224 192C224 227.3 209.7 256 192 256C174.3 256 160 227.3 160 192C160 156.7 174.3 128 192 128C209.7 128 224 156.7 224 192zM288 192C288 156.7 302.3 128 320 128C337.7 128 352 156.7 352 192C352 227.3 337.7 256 320 256C302.3 256 288 227.3 288 192zM512 256C512 397.4 397.4 512 256 512C114.6 512 0 397.4 0 256C0 114.6 114.6 0 256 0C397.4 0 512 114.6 512 256zM256 48C141.1 48 48 141.1 48 256C48 370.9 141.1 464 256 464C370.9 464 464 370.9 464 256C464 141.1 370.9 48 256 48z"/></svg>
